X: 8
T: Maid I Never Forgot, The
Z: Aberfoyle Whistler
S: https://thesession.org/tunes/269#setting52405
R: reel
M: 4/4
L: 1/8
K: Emin
|:E3F G3A|B2 eB dBAc|BGEF GAB^c|dfe^c dBAF|
EDEF GFGA|B2 e^c dB A2|BGEF ~G3 A|1B2 Ac BEED:|2B2 Ac Beed||
|:~B3 d edef|g2 fg edBA|BGEF GAB^c|d2 AG FAGF|
E2 BE DE^cE|B ~E3 DB A2|BGEF ~G3 A|1 B2 Ac Beed:|2B2 Ac BEED||

%-------------------- TUNE SEPARATOR --------------------%

